!!!COM: Anon.
!!!OTL: Gedeonis Area
!!!SCA: Folio 239'-240
!!!YOR: from 'Thirty-Five Conductus for Two and Three Voices', p.46
!!!YOR: edited by Janet Knapp, Collegium Musicum No. 6, Yale University (1965)
!!!YOR: from the School of Notre Dame; circa 1170-1240
!!!YOO: Yale University
!!!YOY: 1965
**kern	**kern	**kern
*M6/8	*M6/8	*M6/8
=1	=1	=1
4d	4G	4g
8B	8B	8e
4G	4d	4g
16A	8e	8a
16B	.	.
=2	=2	=2
8c	8d	4g
8B	8B	.
8A	8c	8f#
4G	4d	4g
8r	8r	8r
=3	=3	=3
4A	4e	4e
8F	8f	8c
4D	4d	4d
8E	8B	8e
=4	=4	=4
4G	4G	4d
8F	8c	8c
4.A	16B	8d
.	16A	.
.	8G	8e
.	8F	8c
=5	=5	=5
4.G	4.G	4.d
4.r	4.r	4.r
=6	=6	=6
4d	4G	4g
8B	8B	8e
4G	4d	4g
16A	8e	8a
16B	.	.
=7	=7	=7
8c	8d	4g
8B	8B	.
8A	8c	8f#
4G	4d	4g
8r	8r	8r
=8	=8	=8
4A	4e	4e
8F	8f	8c
4D	4d	4d
8E	8B	8e
=9	=9	=9
4G	4G	4d
8F	8c	8c
4.A	16B	8d
.	16A	.
.	8G	8e
.	8F	8c
=10	=10	=10
4.G	4.G	4.d
4.r	4.r	4.r
=11	=11	=11
8F	8c	8f
8E	8B	8e
8F	8A	8f
4G	4G	4d
8A	8F	8c
=12	=12	=12
4B	4E	4e
8G	8F	8c
16A	8D	8d
16B	.	.
8c	8E	8e
8B	8F	8f
=13	=13	=13
4.A	4.A	4.e
4.r	4.r	4.r
=14	=14	=14
4B	4B	4d
8c	8G	8e
8B	4A	8d
8A	.	8c
8B	8B	8d
=15	=15	=15
16A	8c	8e
16G	.	.
16F	8B	8d
16E	.	.
8F	8A	8c
4G	4G	4B
8A	8A	8d
=16	=16	=16
16G	8c	4e
16F	.	.
8E	8B	.
8F	8c	8c
4D	4d	4A
8r	8r	8r
=17	=17	=17
8D	4d	8A
8E	.	8B
8F	8c	8c
16E	4c	4c
16D	.	.
8C	.	.
8E	16B	16d
.	16A	16e
=18	=18	=18
4G	4G	4d
8A	8c	{24e
.	.	24f#
.	.	24g}
4B	4B	4f#
8r	8r	8r
=19	=19	=19
4c	4c	4g
8B	8d	{24f#
.	.	24e
.	.	24d}
4A	4e	4e
8B	8d	8f#
=20	=20	=20
4c	4d	4g
8d	8c	{24f#
.	.	24e
.	.	24d}
4.G	4.d	4.g
=21	=21	=21
4A	4A	4e
8F	8c	8c
4D	4A	4d
8E	8B	8e
=22	=22	=22
4G	4G	4d
8F	8F	8c
16A	4.E	4d
16B	.	.
8c	.	.
8B	.	8e
=23	=23	=23
4.A	4.F	4.c
4G	4G	4d
8r	8r	8r
==	==	==
*-	*-	*-
!!!ENC: David Huron
!!!YEC: Copyright 1987, David Huron
!!!EEV: 1.0
